packages/foundations/assets/icons/functional/images/communication/speech_bubble_question_mark_12_filled.svg

<svg width="12" height="12" viewBox="0 0 12 12" fill="none" xmlns="http://www.w3.org/2000/svg">
<g clip-path="url(#clip0_2204_2324)">
<path fill-rule="evenodd" clip-rule="evenodd" d="M9.24704 1.20001C10.1529 1.20001 10.8 1.87931 10.8 2.69917V7.50113C10.8 8.32099 10.1294 9.00029 9.29414 9.00029H4.10593C3.92944 9.00029 3.7765 9.04712 3.67061 9.16424L2.22358 10.6282C1.84712 11.003 1.20001 10.722 1.20001 10.1949V2.69917C1.20001 1.87931 1.88241 1.20001 2.71769 1.20001H9.24704ZM6.00005 6.52501C5.6162 6.52501 5.32501 6.81908 5.32501 7.1933C5.32501 7.56758 5.6162 7.87501 6.00005 7.87501C6.38382 7.87501 6.67501 7.56758 6.67501 7.1933C6.67501 6.81908 6.38382 6.52501 6.00005 6.52501ZM6.14605 2.31591C5.60638 2.31591 5.01422 2.57714 4.75885 2.78363L5.16774 3.84486C5.42599 3.70175 5.75887 3.58949 6.0466 3.58949C6.38194 3.58949 6.46955 3.74198 6.46955 3.91137C6.46955 4.09806 6.36307 4.22041 6.21737 4.3325L5.89358 4.55901C5.6414 4.74268 5.40182 4.98439 5.40182 5.46669V5.92501H6.59859V5.46669C6.5957 5.30528 6.76058 5.18566 7.04883 4.93125C7.33708 4.67683 7.65736 4.32536 7.65736 3.68347C7.65736 2.85019 6.99749 2.31591 6.14605 2.31591Z" fill="#1A1C1F"/>
</g>
<defs>
<clipPath id="clip0_2204_2324">
<rect width="12" height="12" fill="white"/>
</clipPath>
</defs>
</svg>

<svg xmlns="http://www.w3.org/2000/svg" width="12" height="12" fill="none"><g clip-path="url(#a)"><path fill="#1A1C1F" fill-rule="evenodd" d="M9.247 1.2c.906 0 1.553.68 1.553 1.5V7.5c0 .82-.67 1.5-1.506 1.5H4.106c-.177 0-.33.046-.435.163l-1.447 1.464c-.377.375-1.024.094-1.024-.433V2.699c0-.82.682-1.499 1.518-1.499zM6 6.525a.66.66 0 0 0-.675.668c0 .375.291.682.675.682a.673.673 0 0 0 .675-.682A.66.66 0 0 0 6 6.525m.146-4.21c-.54 0-1.132.262-1.387.469l.409 1.06c.258-.142.59-.255.879-.255.335 0 .423.153.423.322 0 .187-.107.31-.253.421l-.323.227c-.253.184-.492.425-.492.908v.458h1.197v-.458c-.003-.162.162-.281.45-.536.288-.254.608-.606.608-1.248 0-.833-.66-1.367-1.511-1.367" clip-rule="evenodd"/></g><defs><clipPath id="a"><path fill="#fff" d="M0 0h12v12H0z"/></clipPath></defs></svg>
